app/dist/common/images/chiyoda-corporation.svg

<svg fill="none" height="18" viewBox="0 0 18 18" width="18" xmlns="http://www.w3.org/2000/svg"><path d="m0 0h18v18h-18z" fill="#f0f3fa"/><path d="m15 5h-1.4237l.704 1.24402zm-2.3625 0 1.1734 2.07336.3755-.6539-.7979-1.41946zm.3912 1.07143-.6415-1.07143h-.6884l.6415 1.07143z" fill="#005bab"/><path d="m12.6845 6.75439.6571 1.14832.3599-.60606-.6728-1.22522zm-.6415-.68296-.6414-1.07143h-.6415l.6415 1.07143zm.1721 1.5123.6571 1.16428.3286-.57417-.6571-1.16427zm-.4693.82935.6571 1.16427.2972-.51036-.6571-1.16428zm-.7041-2.34165-.6414-1.07143h-.59454l.64144 1.07143zm.2347 3.17099.6571 1.16428.266-.46252-.6571-1.16428zm-1.236-3.17099-.64142-1.07143h-.53195l.64146 1.07143zm-1.00127 0-.64146-1.07143h-.46936l.64146 1.07143zm1.76797 4.00037.6571 1.1642.2346-.4146-.6571-1.1643zm-2.76927-4.00037-.64146-1.07143h-.40678l.62581 1.07143zm2.28427 4.84567.6727 1.1483.2034-.3509-.6571-1.1643zm-3.28558-4.84567-.64146-1.07143h-.35984l.64146 1.07143zm2.81617 5.67497.65711 1.1643.1877-.319-.6571-1.1643zm-3.81747-5.67497-.64146-1.07143h-.29726l.64146 1.07143zm3.34811 6.50437.65707 1.1642.1565-.2711-.65712-1.1643zm-4.58409-6.50437h.23468l-.64146-1.07143h-.23468zm4.11473 7.33367.6571 1.1643.12517-.2074-.65711-1.1642z" fill="#005bab"/><path d="m9.03911 6.0714 2.00259 3.58567.2347-.41467-1.76793-3.171zm-3.2073 2.83607c-.07822 0-.15645-.01595-.23468-.0319l2.94133 5.19933.39114-.6858-2.62843-4.59327c-.1408.06379-.29726.11164-.46936.11164zm0-2.20096c.09387 0 .1721.01595.26597.0319l-.34419-.66701h-.71969l.37549.71486c.12516-.04785.26597-.07975.42242-.07975zm-1.07953 1.10048v-.09569l-.89178-1.6399h-.8605l5.02216 8.9286.43808-.7656-3.0665-5.42262c-.39113-.17544-.64146-.55822-.64146-1.00479zm2.28423-1.73559 3.00389 5.356.2973-.5263-2.70667-4.8297zm3.00389 0 1.502 2.70848.2034-.36683-1.283-2.34165zm-3.56713 2.61279 2.5502 4.51351.35984-.622-2.53455-4.46568c-.04693.22329-.18774.43063-.37549.57417zm1.56454-2.61279 2.50329 4.4788.2659-.4785-2.23725-4.0003zm3.00389 0 1.0013 1.83129.1721-.31898-.8135-1.51231zm1.2986 0h-.2973l.5007.93814.1408-.27113zm-6.3051 0 .45372.87435c.20339.17544.35984.41467.39113.70175l2.64407 4.6731.32855-.5742-3.16036-5.675zm-.79791.81055-.42243-.81055h-.78227l.76663 1.40066c.07822-.23923.23468-.44657.43807-.59011z" fill="#00aae7"/></svg>

<!-- by TradingView --><svg width="18" height="18" viewBox="0 0 18 18" fill="none" xmlns="http://www.w3.org/2000/svg">
<rect width="18" height="18" fill="#F0F3FA"/>
<path d="M15 5H13.5763L14.2803 6.24402L15 5ZM12.6375 5L13.8109 7.07336L14.1864 6.41946L13.3885 5H12.6375ZM13.0287 6.07143L12.3872 5H11.6988L12.3403 6.07143H13.0287Z" fill="#005BAB"/>
<path d="M12.6845 6.75439L13.3416 7.90271L13.7015 7.29665L13.0287 6.07143L12.6845 6.75439ZM12.043 6.07143L11.4016 5H10.7601L11.4016 6.07143H12.043ZM12.2151 7.58373L12.8722 8.74801L13.2008 8.17384L12.5437 7.00957L12.2151 7.58373ZM11.7458 8.41308L12.4029 9.57735L12.7001 9.06699L12.043 7.90271L11.7458 8.41308ZM11.0417 6.07143L10.4003 5H9.80576L10.4472 6.07143H11.0417ZM11.2764 9.24242L11.9335 10.4067L12.1995 9.94418L11.5424 8.7799L11.2764 9.24242ZM10.0404 6.07143L9.39898 5H8.86703L9.50849 6.07143H10.0404ZM9.03913 6.07143L8.39767 5H7.92831L8.56977 6.07143H9.03913ZM10.8071 10.0718L11.4642 11.236L11.6988 10.8214L11.0417 9.6571L10.8071 10.0718ZM8.03783 6.07143L7.39637 5H6.98959L7.6154 6.07143H8.03783ZM10.3221 10.9171L10.9948 12.0654L11.1982 11.7145L10.5411 10.5502L10.3221 10.9171ZM7.03652 6.07143L6.39506 5H6.03522L6.67668 6.07143H7.03652ZM9.85269 11.7464L10.5098 12.9107L10.6975 12.5917L10.0404 11.4274L9.85269 11.7464ZM6.03522 6.07143L5.39376 5H5.0965L5.73796 6.07143H6.03522ZM9.38333 12.5758L10.0404 13.74L10.1969 13.4689L9.53978 12.3046L9.38333 12.5758ZM4.79924 6.07143H5.03392L4.39246 5H4.15778L4.79924 6.07143ZM8.91397 13.4051L9.57107 14.5694L9.69624 14.362L9.03913 13.1978L8.91397 13.4051Z" fill="#005BAB"/>
<path d="M9.03911 6.0714L11.0417 9.65707L11.2764 9.2424L9.50847 6.0714H9.03911ZM5.83181 8.90747C5.75359 8.90747 5.67536 8.89152 5.59713 8.87557L8.53846 14.0749L8.9296 13.3891L6.30117 8.79583C6.16037 8.85962 6.00391 8.90747 5.83181 8.90747ZM5.83181 6.70651C5.92568 6.70651 6.00391 6.72246 6.09778 6.73841L5.75359 6.0714H5.0339L5.40939 6.78626C5.53455 6.73841 5.67536 6.70651 5.83181 6.70651ZM4.75228 7.80699V7.7113L3.8605 6.0714H3L8.02216 15L8.46024 14.2344L5.39374 8.81178C5.00261 8.63634 4.75228 8.25356 4.75228 7.80699ZM7.03651 6.0714L10.0404 11.4274L10.3377 10.9011L7.63103 6.0714H7.03651ZM10.0404 6.0714L11.5424 8.77988L11.7458 8.41305L10.4628 6.0714H10.0404ZM6.47327 8.68419L9.02347 13.1977L9.38331 12.5757L6.84876 8.11002C6.80183 8.33331 6.66102 8.54065 6.47327 8.68419ZM8.03781 6.0714L10.5411 10.5502L10.807 10.0717L8.56975 6.0714H8.03781ZM11.0417 6.0714L12.043 7.90269L12.2151 7.58371L11.4016 6.0714H11.0417ZM12.3403 6.0714H12.043L12.5437 7.00954L12.6845 6.73841L12.3403 6.0714ZM6.0352 6.0714L6.48892 6.94575C6.69231 7.12119 6.84876 7.36042 6.88005 7.6475L9.52412 12.3206L9.85267 11.7464L6.69231 6.0714H6.0352ZM5.23729 6.88195L4.81486 6.0714H4.03259L4.79922 7.47206C4.87744 7.23283 5.0339 7.02549 5.23729 6.88195Z" fill="#00AAE7"/>
</svg>
